**kern	**kern	**dynam
*part1	*part1	*part1
*staff2	*staff1	*
*I"Piano	*	*
*clefF4	*clefG2	*
*k[b-e-a-]	*k[b-e-a-]	*
=1	=1	=1
4BB- 4F 4A-	4B- 4d 4a-	.
8BB-L 8F 8A-	8B-L 8d 8a-	.
8BB-J 8F 8A-	8B-J 8d 8a-	.
=	=	=
4BB- 4G	4B- 4d 4b-	.
8BB-L 8F 8A-	8B-L 8d 8a-	.
8BB-J 8F 8A-	8B-J 8d 8a-	.
=	=	=
4E- 4G	4B- 4e- 4g	.
8E-L 8G	8B-L 8e- 8g	.
8E-J 8G	8B-J 8e- 8g	.
=	=	=
4E- 4G	4B- 4g	.
8E-L 8G	8cL 8g	.
8E-J 8G	8dJ 8g	.
=	=	=
4E- 4G	4e- 4g	.
8E-L 8G	8B-L 8e- 8g	.
8E-J 8G	8B-J 8e- 8g	.
=	=	=
4E- 4G	4B- 4e- 4g	.
8E-L 8G	8B-L 8e- 8g	.
8GGJ 8G	8BnJ 8d 8g	ppp
=	=	=
4GG 4G	4Bn 4d 4g	.
8GGL 8G	8BL 8d 8g	.
8GGJ 8G	8BJ 8d 8g	.
=	=	=
4GG 4G	4Bn 4d 4g	.
8GGL 8G	8BL 8d 8g	.
8GGJ 8G	8BJ 8d 8g	.
=	=	=
*-	*-	*-
!!!system-decoration: {(s1,s2)}
